www/assets/icons/motion_photos_paused.svg

<svg xmlns="http://www.w3.org/2000/svg" width="24" height="24" viewBox="0 0 24 24" fill='currentColor'><path d="M22 12c0 5.52-4.48 10-10 10S2 17.52 2 12c0-1.19.22-2.32.6-3.38l1.88.68C4.17 10.14 4 11.05 4 12c0 4.41 3.59 8 8 8s8-3.59 8-8-3.59-8-8-8c-.95 0-1.85.17-2.69.48l-.68-1.89C9.69 2.22 10.82 2 12 2c5.52 0 10 4.48 10 10M5.5 4C4.67 4 4 4.67 4 5.5S4.67 7 5.5 7 7 6.33 7 5.5 6.33 4 5.5 4M11 16V8H9v8zm4 0V8h-2v8z"/></svg>

<svg width="24" height="24" viewBox="0 0 24 24" xmlns="http://www.w3.org/2000/svg" fill='currentColor'><path d="M22 12C22 17.52 17.52 22 12 22C6.48 22 2 17.52 2 12C2 10.81 2.22 9.68 2.6 8.62L4.48 9.3C4.17 10.14 4 11.05 4 12C4 16.41 7.59 20 12 20C16.41 20 20 16.41 20 12C20 7.59 16.41 4 12 4C11.05 4 10.15 4.17 9.31 4.48L8.63 2.59C9.69 2.22 10.82 2 12 2C17.52 2 22 6.48 22 12ZM5.5 4C4.67 4 4 4.67 4 5.5C4 6.33 4.67 7 5.5 7C6.33 7 7 6.33 7 5.5C7 4.67 6.33 4 5.5 4ZM11 16V8H9V16H11ZM15 16V8H13V16H15Z"/></svg>
